X: 1917
T: Tatter Jack Welsh
B: australian traditional tunes wiki
M:6/8
L:1/8
R: Jig
Q: 3/8=100
K:Em
V:1 
a|:"D"ged ded|"C"cAB c2A|"D"dcA GFG|Add "A"efg|
"D"afd ded|"C"cAB c2A|"D"dcA GFG|1"A"Add "D"d2a:|2"A"Add "D"d2z||
|:"D"dfa afd|dfa a3|"C"gfg gag|fef g2g|
|"D"afd ded|"C"cAB c2A|"D"dcA GFG|Add d3:|
% abcbook-tune_id 6342d5be480ed5c36c803886


% abcbook-boost 0
% abcbook-tablature 
% abcbook-transpose 
% abcbook-lastupdated 1665324487747
% abcbook-soundfonts 
% abcbook-repeats 1
% NFF Book 2018

